<?xml version="1.0" encoding="UTF-8"?>
<map version="1.10" tiledversion="1.12.1" orientation="orthogonal" renderorder="right-down" width="20" height="15" tilewidth="16" tileheight="16" infinite="0" nextlayerid="7" nextobjectid="5">
 <tileset firstgid="1" name="SpaceStation_Tileset" tilewidth="16" tileheight="16" tilecount="88" columns="11">
  <image source="SpaceStationAda/SpaceStation_Tileset.png" width="176" height="128"/>
  <tile id="0">
   <properties>
    <property name="collidable" type="bool" value="true"/>
   </properties>
  </tile>
  <tile id="1">
   <properties>
    <property name="collidable" type="bool" value="true"/>
   </properties>
  </tile>
  <tile id="2">
   <properties>
    <property name="collidable" type="bool" value="true"/>
   </properties>
  </tile>
  <tile id="3">
   <properties>
    <property name="collidable" type="bool" value="true"/>
   </properties>
  </tile>
  <tile id="4">
   <properties>
    <property name="collidable" type="bool" value="true"/>
   </properties>
  </tile>
  <tile id="5">
   <properties>
    <property name="collidable" type="bool" value="true"/>
   </properties>
  </tile>
  <tile id="11">
   <properties>
    <property name="collidable" type="bool" value="true"/>
   </properties>
  </tile>
  <tile id="12">
   <properties>
    <property name="collidable" type="bool" value="true"/>
   </properties>
  </tile>
  <tile id="13">
   <properties>
    <property name="collidable" type="bool" value="true"/>
   </properties>
  </tile>
  <tile id="14">
   <properties>
    <property name="collidable" type="bool" value="true"/>
   </properties>
  </tile>
  <tile id="15">
   <properties>
    <property name="collidable" type="bool" value="true"/>
   </properties>
  </tile>
  <tile id="22">
   <properties>
    <property name="collidable" type="bool" value="true"/>
   </properties>
  </tile>
  <tile id="23">
   <properties>
    <property name="collidable" type="bool" value="true"/>
   </properties>
  </tile>
  <tile id="24">
   <properties>
    <property name="collidable" type="bool" value="true"/>
   </properties>
  </tile>
 </tileset>
 <tileset firstgid="89" name="SpaceStation_Objects" tilewidth="16" tileheight="16" tilecount="132" columns="22">
  <image source="SpaceStationAda/SpaceStation_Objects.png" width="352" height="96"/>
 </tileset>
 <layer id="1" name="BG" width="20" height="15" visible="0">
  <data encoding="csv">
86,87,88,27,13,13,13,13,13,13,13,13,13,13,13,13,13,13,13,13,
86,87,88,18,13,13,13,13,0,0,0,0,13,13,13,13,13,13,13,13,
86,87,88,0,0,0,0,0,0,10,11,0,0,0,0,0,0,0,0,13,
86,87,88,84,85,63,38,36,37,21,22,64,65,34,35,75,76,44,53,13,
86,87,88,45,46,47,48,49,50,41,42,45,46,47,48,49,50,42,62,13,
86,87,88,56,57,58,59,60,61,52,53,56,57,58,59,60,61,53,73,13,
86,87,88,67,68,69,70,71,72,32,33,67,68,69,70,71,72,64,44,55,
86,87,88,78,79,80,81,82,83,35,39,78,79,80,81,82,83,75,40,41,
86,87,88,62,40,41,34,35,76,77,36,37,63,75,76,55,32,33,51,52,
86,87,88,73,51,52,53,37,37,76,37,37,74,64,65,44,55,44,34,35,
0,0,0,0,0,0,0,0,0,0,0,0,0,0,0,0,0,0,0,0,
13,13,13,13,13,13,13,13,13,13,13,13,13,13,13,13,13,13,13,13,
13,13,13,13,13,13,13,13,13,13,13,13,13,13,13,13,13,13,13,13,
13,13,13,13,13,13,13,13,13,13,13,13,13,13,13,13,13,13,13,13,
13,13,13,13,13,13,13,13,13,13,13,13,13,13,13,13,13,13,13,13
</data>
 </layer>
 <layer id="2" name="Walls" width="20" height="15">
  <properties>
   <property name="collidable" type="bool" value="true"/>
  </properties>
  <data encoding="csv">
0,0,0,12,0,0,0,30,31,0,0,0,0,0,0,0,7,0,0,0,
0,0,0,12,0,17,26,27,4,24,24,5,18,0,0,8,9,17,0,0,
0,0,0,23,24,24,24,24,25,0,0,23,24,24,24,24,24,24,5,0,
0,0,0,0,0,0,0,0,0,0,0,0,0,0,0,0,0,0,12,0,
0,0,0,0,0,0,0,0,0,0,0,0,0,0,0,0,0,0,12,7,
0,0,0,0,0,0,0,0,0,0,0,0,0,0,0,0,0,0,12,29,
0,0,0,0,0,0,0,0,0,0,0,0,0,0,0,0,0,0,23,24,
0,0,0,0,0,0,0,0,0,0,0,0,0,0,0,0,0,0,137,0,
0,0,0,0,0,0,0,0,0,0,0,0,0,0,0,0,0,0,0,0,
0,0,0,0,0,0,0,0,0,0,0,0,0,0,0,0,0,0,0,0,
2,2,2,2,2,2,2,2,2,2,2,2,2,2,2,2,2,2,2,2,
26,27,28,0,8,9,0,0,28,29,7,0,28,28,17,0,0,30,31,28,
29,7,0,0,19,20,0,0,0,0,18,0,0,30,31,0,0,0,26,27,
0,18,0,0,0,17,0,0,0,0,0,0,0,0,0,0,0,0,0,0,
0,0,0,0,0,0,0,0,0,0,0,0,0,0,0,0,0,0,0,0
</data>
 </layer>
 <objectgroup id="4" name="Door" visible="0">
  <properties>
   <property name="Open" type="bool" value="true"/>
  </properties>
  <object id="4" name="doorTop" gid="98" x="304" y="128" width="16" height="16">
   <properties>
    <property name="Open" type="bool" value="true"/>
   </properties>
  </object>
 </objectgroup>
 <objectgroup id="6" name="PlayerSpawn" visible="0">
  <object id="3" x="23.6667" y="130.667">
   <point/>
  </object>
 </objectgroup>
 <layer id="3" name="Boxes" width="20" height="15">
  <properties>
   <property name="collidable" type="bool" value="true"/>
  </properties>
  <data encoding="csv">
0,0,0,0,0,0,0,0,0,0,0,0,0,0,0,0,0,0,0,0,
0,0,0,0,0,0,0,0,0,0,0,0,0,0,0,0,0,0,0,0,
0,0,0,0,0,0,0,0,0,0,0,0,0,0,0,0,0,0,0,0,
0,0,0,0,0,0,0,0,0,0,0,0,0,0,0,0,0,0,0,0,
0,0,0,0,0,0,0,0,0,0,0,0,0,0,0,0,0,0,0,0,
0,0,0,0,0,0,0,0,0,0,0,0,0,0,0,0,0,0,0,0,
0,0,0,0,0,0,0,0,0,0,0,0,0,0,155,0,0,0,0,0,
0,125,0,0,0,0,0,0,0,0,0,0,0,155,155,155,0,0,0,0,
0,0,0,0,0,0,0,0,0,0,0,0,155,155,155,155,0,0,0,0,
0,0,0,0,0,0,0,0,0,0,0,0,155,155,155,155,0,0,0,0,
0,0,0,0,0,0,0,0,0,0,0,0,0,0,0,0,0,0,0,0,
0,0,0,0,0,0,0,0,0,0,0,0,0,0,0,0,0,0,0,0,
0,0,0,0,0,0,0,0,0,0,0,0,0,0,0,0,0,0,0,0,
0,0,0,0,0,0,0,0,0,0,0,0,0,0,0,0,0,0,0,0,
0,0,0,0,0,0,0,0,0,0,0,0,0,0,0,0,0,0,0,0
</data>
 </layer>
 <layer id="5" name="Foreground" width="20" height="15" visible="0">
  <data encoding="csv">
0,0,0,0,0,0,0,0,0,0,0,0,0,0,0,0,0,0,0,0,
0,0,0,0,0,0,0,0,0,0,0,0,0,0,0,0,0,0,0,0,
0,0,0,0,0,0,0,0,0,0,0,0,0,0,0,0,0,0,0,0,
0,0,0,0,0,0,0,0,0,0,0,0,0,0,0,0,0,0,0,0,
0,0,0,0,0,0,0,0,0,0,0,0,0,0,0,0,0,0,0,0,
0,0,0,0,0,0,0,0,0,0,0,0,0,0,0,0,0,0,0,0,
99,100,101,0,0,0,0,0,0,0,0,0,0,0,0,0,0,0,0,0,
121,122,123,0,0,0,0,0,0,0,0,0,0,0,0,0,0,0,0,0,
143,144,145,0,0,0,180,181,182,183,0,0,0,0,0,0,0,0,0,0,
165,166,167,0,0,0,202,203,204,205,0,0,0,0,0,0,0,0,0,0,
0,0,0,0,0,0,0,0,0,0,0,0,0,0,0,0,0,0,0,0,
0,0,0,0,0,0,0,0,0,0,0,0,0,0,0,0,0,0,0,0,
0,0,0,0,0,0,0,0,0,0,0,0,0,0,0,0,0,0,0,0,
0,0,0,0,0,0,0,0,0,0,0,0,0,0,0,0,0,0,0,0,
0,0,0,0,0,0,0,0,0,0,0,0,0,0,0,0,0,0,0,0
</data>
 </layer>
</map>
